packages/web-icons/svgs/pallet.svg

<svg viewBox="0 0 60 49" xmlns="http://www.w3.org/2000/svg" class="ridi_icon"><path d="M30 .2C14 .2.9 10.9.9 24.2s13 24 29.1 24c2.4 0 4.7-.2 6.9-.7 1.9-.4 2.6-2.2 1.6-3.9l-3.6-6.3c-1.9-3.3-.4-6 3.5-6h15.9c1.9 0 4-1.5 4.4-3.3.2-1.2.4-2.5.4-3.8 0-13.3-13-24-29.1-24zM10.4 27.7c-2.7 0-4.9-1.6-4.9-3.5s2.2-3.5 4.9-3.5 4.9 1.6 4.9 3.5-2.2 3.5-4.9 3.5zm4.4-12.4c-1.9-1.9-2.4-4.6-1-5.9 1.4-1.4 4-.9 5.9 1 1.9 1.9 2.4 4.6 1 5.9-1.3 1.4-3.9.9-5.9-1zm17.3 25.3c-.3 2.3-3.1 3.8-6.3 3.4-3.2-.4-5.6-2.6-5.3-4.8.3-2.3 3.1-3.8 6.3-3.4 3.2.4 5.6 2.5 5.3 4.8zM30 13c-1.9 0-3.5-2.2-3.5-4.9s1.6-4.9 3.5-4.9 3.5 2.2 3.5 4.9S31.9 13 30 13zm9.2 3.3c-1.4-1.4-.9-4 1-5.9 1.9-1.9 4.6-2.4 5.9-1 1.4 1.4.9 4-1 5.9-1.9 1.9-4.5 2.4-5.9 1zm10.4 11.4c-2.7 0-4.9-1.6-4.9-3.5s2.2-3.5 4.9-3.5 4.9 1.6 4.9 3.5-2.2 3.5-4.9 3.5z"/></svg>

<?xml version="1.0" encoding="UTF-8"?>
<svg width="60px" height="49px" viewBox="0 0 60 49" version="1.1" xmlns="http://www.w3.org/2000/svg">
  <!-- Generator: Sketch 41.2 (35397) - http://www.bohemiancoding.com/sketch -->
  <title>pallet</title>
  <desc>Created with Sketch.</desc>
  <defs></defs>
  <g id="Page-1" stroke="none" stroke-width="1" fill="none" fill-rule="evenodd">
    <g id="pallet" fill="#444444">
      <g id="레이어_1">
        <path d="M30,0.2 C14,0.2 0.9,10.9 0.9,24.2 C0.9,37.5 13.9,48.2 30,48.2 C32.4,48.2 34.7,48 36.9,47.5 C38.8,47.1 39.5,45.3 38.5,43.6 L34.9,37.3 C33,34 34.5,31.3 38.4,31.3 L54.3,31.3 C56.2,31.3 58.3,29.8 58.7,28 C58.9,26.8 59.1,25.5 59.1,24.2 C59.1,10.9 46.1,0.2 30,0.2 L30,0.2 Z M10.4,27.7 C7.7,27.7 5.5,26.1 5.5,24.2 C5.5,22.3 7.7,20.7 10.4,20.7 C13.1,20.7 15.3,22.3 15.3,24.2 C15.3,26.1 13.1,27.7 10.4,27.7 Z M14.8,15.3 C12.9,13.4 12.4,10.7 13.8,9.4 C15.2,8 17.8,8.5 19.7,10.4 C21.6,12.3 22.1,15 20.7,16.3 C19.4,17.7 16.8,17.2 14.8,15.3 Z M32.1,40.6 C31.8,42.9 29,44.4 25.8,44 C22.6,43.6 20.2,41.4 20.5,39.2 C20.8,36.9 23.6,35.4 26.8,35.8 C30,36.2 32.4,38.3 32.1,40.6 Z M30,13 C28.1,13 26.5,10.8 26.5,8.1 C26.5,5.4 28.1,3.2 30,3.2 C31.9,3.2 33.5,5.4 33.5,8.1 C33.5,10.8 31.9,13 30,13 Z M39.2,16.3 C37.8,14.9 38.3,12.3 40.2,10.4 C42.1,8.5 44.8,8 46.1,9.4 C47.5,10.8 47,13.4 45.1,15.3 C43.2,17.2 40.6,17.7 39.2,16.3 Z M49.6,27.7 C46.9,27.7 44.7,26.1 44.7,24.2 C44.7,22.3 46.9,20.7 49.6,20.7 C52.3,20.7 54.5,22.3 54.5,24.2 C54.5,26.1 52.3,27.7 49.6,27.7 Z" id="Shape"></path>
      </g>
    </g>
  </g>
</svg>
